dist/assets/images/brands/brandsIco/3d-printer (Traced).svg

<svg width="28" height="28" viewBox="0 0 28 28" fill="none" xmlns="http://www.w3.org/2000/svg">
<g opacity="0.6">
<mask id="path-1-inside-1_351_1897" fill="white">
<path fill-rule="evenodd" clip-rule="evenodd" d="M3.93562 0.084606C3.07045 0.316069 2.38835 1.08577 2.23876 1.99943C2.20611 2.19867 2.18587 6.63946 2.18571 13.6495L2.18538 24.9775L1.994 25.0086C1.69444 25.0572 1.12326 25.363 0.858914 25.6163C0.349813 26.1041 0.0736577 26.6717 0.0143136 27.3523C-0.0153312 27.6921 -0.00794733 27.7259 0.124305 27.8582L0.266075 28H13.9995H27.7329L27.8672 27.8657C28.0172 27.7158 28.0348 27.5384 27.9468 27.064C27.7768 26.147 26.9466 25.2351 26.0985 25.0336L25.8148 24.9663L25.8006 15.3314C25.7867 5.94414 25.7836 5.69359 25.6821 5.58141C25.5404 5.42488 25.2117 5.42488 25.0701 5.58141C24.9685 5.69359 24.9655 5.94376 24.9518 15.3169L24.9376 24.9372H13.9991H3.0605L3.06105 13.4652L3.06159 1.99324L3.1892 1.71978C3.33064 1.41667 3.67751 1.07368 3.98266 0.93509C4.16545 0.852065 4.98587 0.844681 13.9995 0.844681C23.0131 0.844681 23.8336 0.852065 24.0164 0.93509C24.3215 1.07368 24.6684 1.41667 24.8098 1.71978C24.9303 1.97793 24.9375 2.05598 24.9388 3.11446C24.9402 4.32603 24.968 4.46878 25.2192 4.55711C25.449 4.63795 25.6467 4.55662 25.7352 4.3449C25.8293 4.11973 25.8428 2.64864 25.7564 2.04794C25.6178 1.08539 24.9478 0.318639 24.0382 0.0818166C23.7493 0.00655834 22.6065 -0.00268486 13.9743 0.000542058C5.58287 0.00365959 4.19487 0.0152546 3.93562 0.084606ZM4.8318 3.69514C4.50899 3.80962 4.15987 4.13121 4.01077 4.45139L3.88202 4.72792L3.88147 9.46038C3.88087 14.6092 3.86709 14.3795 4.18158 14.4584C4.33041 14.4958 4.52272 14.418 4.63123 14.2767C4.68182 14.2108 4.69829 13.4163 4.6996 10.9767L4.70135 7.76341H5.89332H7.08524L7.14748 7.99607C7.23297 8.31565 7.5013 8.66842 7.7588 8.7998L7.97359 8.90935L7.99197 9.53827C8.01664 10.3796 8.04289 10.4086 8.8049 10.4349L9.35043 10.4536V11.1535C9.35043 12.1349 9.3209 12.1062 10.3575 12.1293L11.1557 12.147L11.3196 11.9831L11.4835 11.8191V11.1313V10.4434H11.9175C12.383 10.4434 12.6083 10.3853 12.7217 10.2362C12.7699 10.1727 12.7933 9.94639 12.7945 9.53389L12.7962 8.92526L12.9525 8.86051C13.2075 8.75489 13.5126 8.399 13.6198 8.08211L13.7185 7.79075L18.5081 7.77681L23.2977 7.76281V13.504V19.2452L23.1335 19.4322C23.0432 19.535 22.9202 19.6321 22.86 19.6478C22.7585 19.6743 22.7507 19.6493 22.7507 19.2955C22.7507 18.6934 22.664 18.444 22.3443 18.1262C22.1705 17.9535 21.9831 17.8259 21.8419 17.7841C21.6899 17.7392 21.1439 17.7176 20.16 17.7176H18.7033V15.6418C18.7033 14.2156 18.684 13.5236 18.6415 13.4305C18.6075 13.3559 18.5152 13.2681 18.4363 13.2354C18.3363 13.194 17.0211 13.1805 14.0903 13.1908L9.8877 13.2054L9.78312 13.3345C9.69774 13.44 9.6786 13.5527 9.6786 13.9498V14.436L8.37959 14.4378C6.95063 14.4397 6.92602 14.445 6.83238 14.7713C6.80345 14.8723 6.77976 15.5765 6.77976 16.3362V17.7176L6.57466 17.718C6.23495 17.7184 5.98712 17.8161 5.71266 18.0577C5.37487 18.355 5.28856 18.5647 5.25142 19.1782L5.22095 19.6816L5.05408 19.6004C4.70687 19.4318 4.70135 19.397 4.70135 17.3922V15.5796L4.56707 15.4454C4.39484 15.2731 4.15752 15.2699 3.99983 15.4377C3.8824 15.5627 3.88093 15.5881 3.88147 17.475C3.88196 19.3696 3.88306 19.3881 4.01126 19.6592C4.16135 19.9766 4.35633 20.1723 4.70135 20.3517L4.94748 20.4796L13.9175 20.4939C22.2735 20.5071 22.9053 20.5016 23.1484 20.4143C23.4868 20.2926 23.753 20.0697 23.9404 19.7509L24.0907 19.4952L24.1052 12.1137L24.1196 4.73219L23.9788 4.44433C23.9013 4.286 23.7381 4.071 23.6161 3.96659C23.1649 3.58039 23.8652 3.60621 13.9761 3.61102C6.30556 3.61474 5.02536 3.6265 4.8318 3.69514ZM22.9363 4.51002C23.1467 4.60984 23.2977 4.84731 23.2977 5.07818V5.24751H13.9995H4.70135V5.08069C4.70135 4.83933 4.83322 4.62067 5.04035 4.51861C5.20487 4.43755 6.0026 4.42951 13.9913 4.42836C21.717 4.42727 22.7823 4.437 22.9363 4.51002ZM7.10793 6.5328V6.94301H5.90464H4.70135V6.5328V6.1226H5.90464H7.10793V6.5328ZM12.8509 7.00016C12.8509 7.85901 12.8481 7.88062 12.7166 8.01199L12.5824 8.14626H10.397H8.21157L8.06996 7.97797C7.93104 7.81285 7.92836 7.79387 7.92836 6.96614V6.1226H10.3896H12.8509V7.00016ZM23.2977 6.5328V6.94301H18.5119H13.726V6.5328V6.1226H18.5119H23.2977V6.5328ZM11.965 9.28115L11.9815 9.56829H10.4198H8.85818V9.2666V8.96497L10.4033 8.97946L11.9484 8.99401L11.965 9.28115ZM10.6517 10.8673L10.6358 11.2911L10.4033 11.3079L10.1709 11.3248V10.8841V10.4434H10.4193H10.6677L10.6517 10.8673ZM17.8555 15.858V17.6903L12.7552 17.7042L7.65488 17.7182V16.4873V15.2564H8.95039C10.2052 15.2564 10.2498 15.2527 10.3725 15.1375C10.4858 15.031 10.499 14.9693 10.499 14.545C10.499 14.2845 10.5156 14.0548 10.5359 14.0346C10.5561 14.0143 12.2114 14.004 14.2141 14.0118L17.8555 14.0258V15.858ZM21.778 18.6896C21.8819 18.7936 21.9055 18.8851 21.922 19.2502L21.9419 19.6866H13.9995H6.05713L6.07726 19.2437C6.09569 18.8383 6.11035 18.7898 6.25086 18.6689L6.40434 18.5369L14.029 18.5512L21.6538 18.5654L21.778 18.6896ZM17.6791 21.0897C17.3685 21.1997 16.9254 21.6081 16.7454 21.9505C16.6176 22.1936 16.5985 22.2938 16.5985 22.7221C16.5985 23.1504 16.6176 23.2506 16.7454 23.4937C16.9318 23.8481 17.3712 24.2453 17.7015 24.3578C17.8421 24.4058 18.1311 24.4447 18.3438 24.4444C19.0103 24.4434 19.5757 24.0875 19.8802 23.4771C20.0906 23.0554 20.1053 22.4252 19.914 22.031C19.7241 21.6394 19.4443 21.3509 19.0764 21.167C18.786 21.022 18.6842 20.9998 18.3253 21.0036C18.097 21.0059 17.8062 21.0447 17.6791 21.0897ZM21.6765 21.1312C21.2845 21.3137 20.9752 21.6113 20.7996 21.9749C20.6749 22.233 20.65 22.3573 20.65 22.7221C20.65 23.0869 20.6749 23.2111 20.7996 23.4692C21.091 24.0727 21.6785 24.4434 22.3444 24.4444C22.8511 24.4451 23.18 24.3268 23.5192 24.0219C24.0719 23.5249 24.2584 22.7983 24.0073 22.1204C23.8498 21.6954 23.3867 21.2225 22.9983 21.0902C22.5951 20.9529 22.0214 20.9706 21.6765 21.1312ZM18.7527 21.9335C19.1308 22.164 19.292 22.539 19.1885 22.947C19.0352 23.5509 18.2848 23.8245 17.7758 23.4621C17.574 23.3185 17.393 22.9684 17.393 22.7221C17.393 22.3786 17.6695 21.9803 17.9922 21.8591C18.1869 21.7859 18.5726 21.8237 18.7527 21.9335ZM22.9111 21.9811C23.1141 22.1256 23.2953 22.4751 23.2953 22.7221C23.2953 22.9684 23.1142 23.3185 22.9125 23.4621C22.7984 23.5434 22.6292 23.5983 22.4463 23.6134C21.4723 23.6942 21.0847 22.4344 21.9287 21.9309C22.1904 21.7748 22.6547 21.7985 22.9111 21.9811ZM26.1506 25.937C26.586 26.1508 26.9483 26.5799 27.0956 27.0565L27.1337 27.1796H13.9995H0.865314L0.901413 27.0565C1.01977 26.6528 1.33307 26.2378 1.6835 26.0205C2.11553 25.7525 1.55321 25.7637 14.0816 25.7746L25.841 25.7849L26.1506 25.937Z"/>
</mask>
<path fill-rule="evenodd" clip-rule="evenodd" d="M3.93562 0.084606C3.07045 0.316069 2.38835 1.08577 2.23876 1.99943C2.20611 2.19867 2.18587 6.63946 2.18571 13.6495L2.18538 24.9775L1.994 25.0086C1.69444 25.0572 1.12326 25.363 0.858914 25.6163C0.349813 26.1041 0.0736577 26.6717 0.0143136 27.3523C-0.0153312 27.6921 -0.00794733 27.7259 0.124305 27.8582L0.266075 28H13.9995H27.7329L27.8672 27.8657C28.0172 27.7158 28.0348 27.5384 27.9468 27.064C27.7768 26.147 26.9466 25.2351 26.0985 25.0336L25.8148 24.9663L25.8006 15.3314C25.7867 5.94414 25.7836 5.69359 25.6821 5.58141C25.5404 5.42488 25.2117 5.42488 25.0701 5.58141C24.9685 5.69359 24.9655 5.94376 24.9518 15.3169L24.9376 24.9372H13.9991H3.0605L3.06105 13.4652L3.06159 1.99324L3.1892 1.71978C3.33064 1.41667 3.67751 1.07368 3.98266 0.93509C4.16545 0.852065 4.98587 0.844681 13.9995 0.844681C23.0131 0.844681 23.8336 0.852065 24.0164 0.93509C24.3215 1.07368 24.6684 1.41667 24.8098 1.71978C24.9303 1.97793 24.9375 2.05598 24.9388 3.11446C24.9402 4.32603 24.968 4.46878 25.2192 4.55711C25.449 4.63795 25.6467 4.55662 25.7352 4.3449C25.8293 4.11973 25.8428 2.64864 25.7564 2.04794C25.6178 1.08539 24.9478 0.318639 24.0382 0.0818166C23.7493 0.00655834 22.6065 -0.00268486 13.9743 0.000542058C5.58287 0.00365959 4.19487 0.0152546 3.93562 0.084606ZM4.8318 3.69514C4.50899 3.80962 4.15987 4.13121 4.01077 4.45139L3.88202 4.72792L3.88147 9.46038C3.88087 14.6092 3.86709 14.3795 4.18158 14.4584C4.33041 14.4958 4.52272 14.418 4.63123 14.2767C4.68182 14.2108 4.69829 13.4163 4.6996 10.9767L4.70135 7.76341H5.89332H7.08524L7.14748 7.99607C7.23297 8.31565 7.5013 8.66842 7.7588 8.7998L7.97359 8.90935L7.99197 9.53827C8.01664 10.3796 8.04289 10.4086 8.8049 10.4349L9.35043 10.4536V11.1535C9.35043 12.1349 9.3209 12.1062 10.3575 12.1293L11.1557 12.147L11.3196 11.9831L11.4835 11.8191V11.1313V10.4434H11.9175C12.383 10.4434 12.6083 10.3853 12.7217 10.2362C12.7699 10.1727 12.7933 9.94639 12.7945 9.53389L12.7962 8.92526L12.9525 8.86051C13.2075 8.75489 13.5126 8.399 13.6198 8.08211L13.7185 7.79075L18.5081 7.77681L23.2977 7.76281V13.504V19.2452L23.1335 19.4322C23.0432 19.535 22.9202 19.6321 22.86 19.6478C22.7585 19.6743 22.7507 19.6493 22.7507 19.2955C22.7507 18.6934 22.664 18.444 22.3443 18.1262C22.1705 17.9535 21.9831 17.8259 21.8419 17.7841C21.6899 17.7392 21.1439 17.7176 20.16 17.7176H18.7033V15.6418C18.7033 14.2156 18.684 13.5236 18.6415 13.4305C18.6075 13.3559 18.5152 13.2681 18.4363 13.2354C18.3363 13.194 17.0211 13.1805 14.0903 13.1908L9.8877 13.2054L9.78312 13.3345C9.69774 13.44 9.6786 13.5527 9.6786 13.9498V14.436L8.37959 14.4378C6.95063 14.4397 6.92602 14.445 6.83238 14.7713C6.80345 14.8723 6.77976 15.5765 6.77976 16.3362V17.7176L6.57466 17.718C6.23495 17.7184 5.98712 17.8161 5.71266 18.0577C5.37487 18.355 5.28856 18.5647 5.25142 19.1782L5.22095 19.6816L5.05408 19.6004C4.70687 19.4318 4.70135 19.397 4.70135 17.3922V15.5796L4.56707 15.4454C4.39484 15.2731 4.15752 15.2699 3.99983 15.4377C3.8824 15.5627 3.88093 15.5881 3.88147 17.475C3.88196 19.3696 3.88306 19.3881 4.01126 19.6592C4.16135 19.9766 4.35633 20.1723 4.70135 20.3517L4.94748 20.4796L13.9175 20.4939C22.2735 20.5071 22.9053 20.5016 23.1484 20.4143C23.4868 20.2926 23.753 20.0697 23.9404 19.7509L24.0907 19.4952L24.1052 12.1137L24.1196 4.73219L23.9788 4.44433C23.9013 4.286 23.7381 4.071 23.6161 3.96659C23.1649 3.58039 23.8652 3.60621 13.9761 3.61102C6.30556 3.61474 5.02536 3.6265 4.8318 3.69514ZM22.9363 4.51002C23.1467 4.60984 23.2977 4.84731 23.2977 5.07818V5.24751H13.9995H4.70135V5.08069C4.70135 4.83933 4.83322 4.62067 5.04035 4.51861C5.20487 4.43755 6.0026 4.42951 13.9913 4.42836C21.717 4.42727 22.7823 4.437 22.9363 4.51002ZM7.10793 6.5328V6.94301H5.90464H4.70135V6.5328V6.1226H5.90464H7.10793V6.5328ZM12.8509 7.00016C12.8509 7.85901 12.8481 7.88062 12.7166 8.01199L12.5824 8.14626H10.397H8.21157L8.06996 7.97797C7.93104 7.81285 7.92836 7.79387 7.92836 6.96614V6.1226H10.3896H12.8509V7.00016ZM23.2977 6.5328V6.94301H18.5119H13.726V6.5328V6.1226H18.5119H23.2977V6.5328ZM11.965 9.28115L11.9815 9.56829H10.4198H8.85818V9.2666V8.96497L10.4033 8.97946L11.9484 8.99401L11.965 9.28115ZM10.6517 10.8673L10.6358 11.2911L10.4033 11.3079L10.1709 11.3248V10.8841V10.4434H10.4193H10.6677L10.6517 10.8673ZM17.8555 15.858V17.6903L12.7552 17.7042L7.65488 17.7182V16.4873V15.2564H8.95039C10.2052 15.2564 10.2498 15.2527 10.3725 15.1375C10.4858 15.031 10.499 14.9693 10.499 14.545C10.499 14.2845 10.5156 14.0548 10.5359 14.0346C10.5561 14.0143 12.2114 14.004 14.2141 14.0118L17.8555 14.0258V15.858ZM21.778 18.6896C21.8819 18.7936 21.9055 18.8851 21.922 19.2502L21.9419 19.6866H13.9995H6.05713L6.07726 19.2437C6.09569 18.8383 6.11035 18.7898 6.25086 18.6689L6.40434 18.5369L14.029 18.5512L21.6538 18.5654L21.778 18.6896ZM17.6791 21.0897C17.3685 21.1997 16.9254 21.6081 16.7454 21.9505C16.6176 22.1936 16.5985 22.2938 16.5985 22.7221C16.5985 23.1504 16.6176 23.2506 16.7454 23.4937C16.9318 23.8481 17.3712 24.2453 17.7015 24.3578C17.8421 24.4058 18.1311 24.4447 18.3438 24.4444C19.0103 24.4434 19.5757 24.0875 19.8802 23.4771C20.0906 23.0554 20.1053 22.4252 19.914 22.031C19.7241 21.6394 19.4443 21.3509 19.0764 21.167C18.786 21.022 18.6842 20.9998 18.3253 21.0036C18.097 21.0059 17.8062 21.0447 17.6791 21.0897ZM21.6765 21.1312C21.2845 21.3137 20.9752 21.6113 20.7996 21.9749C20.6749 22.233 20.65 22.3573 20.65 22.7221C20.65 23.0869 20.6749 23.2111 20.7996 23.4692C21.091 24.0727 21.6785 24.4434 22.3444 24.4444C22.8511 24.4451 23.18 24.3268 23.5192 24.0219C24.0719 23.5249 24.2584 22.7983 24.0073 22.1204C23.8498 21.6954 23.3867 21.2225 22.9983 21.0902C22.5951 20.9529 22.0214 20.9706 21.6765 21.1312ZM18.7527 21.9335C19.1308 22.164 19.292 22.539 19.1885 22.947C19.0352 23.5509 18.2848 23.8245 17.7758 23.4621C17.574 23.3185 17.393 22.9684 17.393 22.7221C17.393 22.3786 17.6695 21.9803 17.9922 21.8591C18.1869 21.7859 18.5726 21.8237 18.7527 21.9335ZM22.9111 21.9811C23.1141 22.1256 23.2953 22.4751 23.2953 22.7221C23.2953 22.9684 23.1142 23.3185 22.9125 23.4621C22.7984 23.5434 22.6292 23.5983 22.4463 23.6134C21.4723 23.6942 21.0847 22.4344 21.9287 21.9309C22.1904 21.7748 22.6547 21.7985 22.9111 21.9811ZM26.1506 25.937C26.586 26.1508 26.9483 26.5799 27.0956 27.0565L27.1337 27.1796H13.9995H0.865314L0.901413 27.0565C1.01977 26.6528 1.33307 26.2378 1.6835 26.0205C2.11553 25.7525 1.55321 25.7637 14.0816 25.7746L25.841 25.7849L26.1506 25.937Z" stroke="white" stroke-width="4" mask="url(#path-1-inside-1_351_1897)"/>
</g>
</svg>

<svg width="28" height="28" fill="none" xmlns="http://www.w3.org/2000/svg"><g opacity=".6"><mask id="path-1-inside-1_351_1897" fill="#fff"><path fill-rule="evenodd" clip-rule="evenodd" d="M3.936.085c-.866.231-1.548 1-1.697 1.914-.033.2-.053 4.64-.053 11.65v11.329l-.192.03c-.3.05-.87.355-1.135.608-.51.488-.785 1.056-.845 1.736-.03.34-.022.374.11.506L.266 28h27.467l.134-.134c.15-.15.168-.328.08-.802-.17-.917-1-1.829-1.848-2.03l-.284-.068-.014-9.635c-.014-9.387-.017-9.637-.119-9.75-.142-.156-.47-.156-.612 0-.102.113-.105.363-.118 9.736l-.014 9.62H3.06l.001-11.472V1.993l.128-.273a1.84 1.84 0 01.794-.785c.182-.083 1.003-.09 10.016-.09 9.014 0 9.835.007 10.017.09.306.139.652.482.794.785.12.258.128.336.129 1.394.001 1.212.029 1.355.28 1.443.23.08.428 0 .516-.212.094-.225.108-1.696.021-2.297-.138-.963-.808-1.73-1.718-1.966C23.75.007 22.607-.003 13.974 0 5.583.004 4.194.015 3.936.085zm.896 3.61c-.323.115-.672.436-.821.756l-.129.277V9.46c-.001 5.15-.015 4.92.3 4.998.148.038.34-.04.45-.181.05-.066.066-.86.068-3.3V7.763h2.384l.062.233c.086.32.354.672.612.804l.215.11.018.628c.025.842.05.87.813.897l.545.019v.7c0 .98-.03.952 1.008.975l.798.018.164-.164.163-.164v-1.376h.434c.466 0 .691-.058.805-.207.048-.063.071-.29.072-.702l.002-.609.157-.064c.255-.106.56-.462.667-.779l.099-.291 4.79-.014 4.789-.014v11.482l-.164.187c-.09.103-.214.2-.274.216-.101.026-.11.001-.11-.352 0-.603-.086-.852-.406-1.17-.174-.173-.36-.3-.502-.342-.152-.045-.698-.066-1.682-.066h-1.457v-2.076c0-1.426-.019-2.118-.061-2.211a.447.447 0 00-.206-.196c-.1-.041-1.415-.054-4.346-.044l-4.202.014-.105.13c-.085.105-.104.218-.104.615v.486l-1.3.002c-1.428.002-1.453.007-1.547.333-.029.101-.052.805-.052 1.565v1.382h-.205c-.34 0-.588.098-.862.34-.338.297-.424.507-.462 1.12l-.03.504-.167-.082c-.347-.168-.353-.203-.353-2.208V15.58l-.134-.135c-.172-.172-.41-.175-.567-.007-.118.125-.12.15-.119 2.037.001 1.895.002 1.913.13 2.184.15.318.345.513.69.693l.246.128 8.97.014c8.356.013 8.988.008 9.231-.08a1.48 1.48 0 00.792-.663l.15-.256.015-7.381.015-7.382-.141-.288a1.774 1.774 0 00-.363-.477c-.451-.387.25-.36-9.64-.356-7.67.004-8.95.015-9.144.084zm18.104.815c.21.1.362.337.362.568v.17H4.7V5.08c0-.242.132-.46.34-.562.164-.081.962-.09 8.95-.09 7.726-.002 8.791.008 8.945.081zM7.108 6.533v.41H4.7v-.82h2.407v.41zM12.85 7c0 .859-.003.88-.134 1.012l-.135.134h-4.37l-.142-.168c-.139-.165-.142-.184-.142-1.012v-.843h4.923V7zm10.447-.467v.41h-9.572v-.82h9.572v.41zM11.965 9.28l.017.287H8.857v-.603l1.545.014 1.545.015.017.287zm-1.313 1.586l-.016.424-.233.017-.232.017v-.882h.497l-.016.424zm7.204 4.991v1.832l-5.1.014-5.101.014v-2.461H8.95c1.255 0 1.3-.003 1.423-.119.113-.106.126-.168.126-.592 0-.26.017-.49.037-.51.02-.02 1.675-.031 3.678-.023l3.641.014v1.832zm3.922 2.832c.104.104.128.195.144.56l.02.437H6.057l.02-.443c.019-.406.033-.454.174-.575l.153-.132 7.625.014 7.625.014.124.125zm-4.099 2.4c-.31.11-.754.518-.934.86-.127.244-.146.344-.146.772 0 .428.019.529.146.772.187.354.626.751.956.864.141.048.43.087.643.086.666 0 1.232-.357 1.536-.967.21-.422.225-1.052.034-1.446-.19-.392-.47-.68-.838-.864-.29-.145-.392-.167-.75-.163-.229.002-.52.04-.647.086zm3.998.041a1.81 1.81 0 00-.877.844c-.125.258-.15.382-.15.747s.025.49.15.747c.291.604.878.974 1.544.975.507.001.836-.117 1.175-.422.553-.497.74-1.224.488-1.902-.157-.425-.62-.898-1.009-1.03-.403-.137-.977-.12-1.322.041zm-2.924.802c.378.231.539.606.436 1.014-.154.604-.904.878-1.413.515-.202-.143-.383-.494-.383-.74 0-.343.276-.742.6-.863.194-.073.58-.035.76.074zm4.158.048c.203.145.384.494.384.741 0 .246-.18.596-.383.74a.962.962 0 01-.466.151c-.974.081-1.361-1.179-.517-1.682.261-.156.726-.133.982.05zm3.24 3.956c.435.214.797.643.945 1.12l.038.123H.865l.036-.123c.119-.404.432-.82.782-1.037.433-.267-.13-.256 12.399-.245l11.759.01.31.152z"/></mask><path clip-rule="evenodd" d="M3.936.085c-.866.231-1.548 1-1.697 1.914-.033.2-.053 4.64-.053 11.65v11.329l-.192.03c-.3.05-.87.355-1.135.608-.51.488-.785 1.056-.845 1.736-.03.34-.022.374.11.506L.266 28h27.467l.134-.134c.15-.15.168-.328.08-.802-.17-.917-1-1.829-1.848-2.03l-.284-.068-.014-9.635c-.014-9.387-.017-9.637-.119-9.75-.142-.156-.47-.156-.612 0-.102.113-.105.363-.118 9.736l-.014 9.62H3.06l.001-11.472V1.993l.128-.273a1.84 1.84 0 01.794-.785c.182-.083 1.003-.09 10.016-.09 9.014 0 9.835.007 10.017.09.306.139.652.482.794.785.12.258.128.336.129 1.394.001 1.212.029 1.355.28 1.443.23.08.428 0 .516-.212.094-.225.108-1.696.021-2.297-.138-.963-.808-1.73-1.718-1.966C23.75.007 22.607-.003 13.974 0 5.583.004 4.194.015 3.936.085zm.896 3.61c-.323.115-.672.436-.821.756l-.129.277V9.46c-.001 5.15-.015 4.92.3 4.998.148.038.34-.04.45-.181.05-.066.066-.86.068-3.3V7.763h2.384l.062.233c.086.32.354.672.612.804l.215.11.018.628c.025.842.05.87.813.897l.545.019v.7c0 .98-.03.952 1.008.975l.798.018.164-.164.163-.164v-1.376h.434c.466 0 .691-.058.805-.207.048-.063.071-.29.072-.702l.002-.609.157-.064c.255-.106.56-.462.667-.779l.099-.291 4.79-.014 4.789-.014v11.482l-.164.187c-.09.103-.214.2-.274.216-.101.026-.11.001-.11-.352 0-.603-.086-.852-.406-1.17-.174-.173-.36-.3-.502-.342-.152-.045-.698-.066-1.682-.066h-1.457v-2.076c0-1.426-.019-2.118-.061-2.211a.447.447 0 00-.206-.196c-.1-.041-1.415-.054-4.346-.044l-4.202.014-.105.13c-.085.105-.104.218-.104.615v.486l-1.3.002c-1.428.002-1.453.007-1.547.333-.029.101-.052.805-.052 1.565v1.382h-.205c-.34 0-.588.098-.862.34-.338.297-.424.507-.462 1.12l-.03.504-.167-.082c-.347-.168-.353-.203-.353-2.208V15.58l-.134-.135c-.172-.172-.41-.175-.567-.007-.118.125-.12.15-.119 2.037.001 1.895.002 1.913.13 2.184.15.318.345.513.69.693l.246.128 8.97.014c8.356.013 8.988.008 9.231-.08a1.48 1.48 0 00.792-.663l.15-.256.015-7.381.015-7.382-.141-.288a1.774 1.774 0 00-.363-.477c-.451-.387.25-.36-9.64-.356-7.67.004-8.95.015-9.144.084zm18.104.815c.21.1.362.337.362.568v.17H4.7V5.08c0-.242.132-.46.34-.562.164-.081.962-.09 8.95-.09 7.726-.002 8.791.008 8.945.081zM7.108 6.533v.41H4.7v-.82h2.407v.41zM12.85 7c0 .859-.003.88-.134 1.012l-.135.134h-4.37l-.142-.168c-.139-.165-.142-.184-.142-1.012v-.843h4.923V7zm10.447-.467v.41h-9.572v-.82h9.572v.41zM11.965 9.28l.017.287H8.857v-.603l1.545.014 1.545.015.017.287zm-1.313 1.586l-.016.424-.233.017-.232.017v-.882h.497l-.016.424zm7.204 4.991v1.832l-5.1.014-5.101.014v-2.461H8.95c1.255 0 1.3-.003 1.423-.119.113-.106.126-.168.126-.592 0-.26.017-.49.037-.51.02-.02 1.675-.031 3.678-.023l3.641.014v1.832zm3.922 2.832c.104.104.128.195.144.56l.02.437H6.057l.02-.443c.019-.406.033-.454.174-.575l.153-.132 7.625.014 7.625.014.124.125zm-4.099 2.4c-.31.11-.754.518-.934.86-.127.244-.146.344-.146.772 0 .428.019.529.146.772.187.354.626.751.956.864.141.048.43.087.643.086.666 0 1.232-.357 1.536-.967.21-.422.225-1.052.034-1.446-.19-.392-.47-.68-.838-.864-.29-.145-.392-.167-.75-.163-.229.002-.52.04-.647.086zm3.998.041a1.81 1.81 0 00-.877.844c-.125.258-.15.382-.15.747s.025.49.15.747c.291.604.878.974 1.544.975.507.001.836-.117 1.175-.422.553-.497.74-1.224.488-1.902-.157-.425-.62-.898-1.009-1.03-.403-.137-.977-.12-1.322.041zm-2.924.802c.378.231.539.606.436 1.014-.154.604-.904.878-1.413.515-.202-.143-.383-.494-.383-.74 0-.343.276-.742.6-.863.194-.073.58-.035.76.074zm4.158.048c.203.145.384.494.384.741 0 .246-.18.596-.383.74a.962.962 0 01-.466.151c-.974.081-1.361-1.179-.517-1.682.261-.156.726-.133.982.05zm3.24 3.956c.435.214.797.643.945 1.12l.038.123H.865l.036-.123c.119-.404.432-.82.782-1.037.433-.267-.13-.256 12.399-.245l11.759.01.31.152z" stroke="#fff" stroke-width="4" mask="url(#path-1-inside-1_351_1897)"/></g></svg>
